X: 24441
T: Luachrachán's, The
R: jig
M: 6/8
K: Dmajor
A|:BAF AFE|DFD EDB,|A,B,D EDE|FED EFA|
BAF AFE|DFD EDB,|A,B,D EDE|1 FDC DFA:|2 FDC DFE||
DFA dcd|ede fdB|def edB|A (3Bcd e2 f|
edB BAF|DFD EDB,|A,B,D EDE|1 FDD D2 A,:|2 FDD D2 A||

